src/icons/icons_set_01/050-muet.svg

<svg height="50" viewBox="0 0 50 50" width="50" xmlns="http://www.w3.org/2000/svg"><path d="m28.6577797 33.141282c3.0997604-.0002504 4.5279314-1.3987271 4.530689-4.4653599.0070193-7.5057008.0045124-15.0116521-.0030083-22.51735293-.0005014-.49779261-.023314-1.00635235-.1268482-1.49062343-.2905477-1.35866331-1.7340108-2.65172216-3.0461131-2.75413523-.5043848-.03956299-.955373-.12870493-.8305302.7476905.2755064 1.93483071.402856 3.8911957.5683103 5.84079993.0551514.64677983.1586856 1.15884515.8455715 1.52067126.6126821.3222631.9478523 1.0774656.7114533 1.7317574-.7653513 2.1198753.3238892 4.6476501-1.4695346 6.5381603-.1669584.1760302-.161694.5586394-.1594378.8448452.0132865 1.7385181-.410126 3.394655-1.05991 4.9759228-1.8337846 4.4618543-4.7723524 7.3459465-9.751272 6.8348827-1.1867583-.1219441-2.348197-.486775-3.5211674-.7424321.1967903.4141595-.1822503.4109043-.4013519.4990446-1.7127022.6880956-3.4620049.4427049-5.20478972.1647623-.15617879-.0247894-.27701053-.2726841-.41413701-.4166634 2.01503223.2228549 4.03432623.5391084 6.00373323-.2649218.4963628-.7947654 1.0215547-1.6073092.588616-2.5853665-.3655035-.8250637-.3131096-1.4843635.4372004-2.0557733.283027-.2153429.3820489-.5295932.1233386-.8588675.1714708-.6445262.591875-.2356252.8866844-.1810383 2.1639411.4003876 4.2351275.082882 6.2243389-.8000238.3822996-.1697703 1.0706895-.3442982.8681334-.872389-.201052-.5240845-.7640978-.2120877-1.1987912-.0515822-2.3700069.8748931-4.7858897 1.1470765-7.2283454.3513094-.6502854-.2118373-.9069902.1289553-1.2043065.5373556-.7147122-.5100621-1.7162118-.6159808-2.2792576-1.4863666 1.5469972.180287 2.8380418.9399967 4.3419207.8408388.9623922-.0633509 1.3840499-.4619856 1.0082682-1.3273635-.3710187-.8543604.0318374-1.1353077.7019271-1.3426378 1.7031761-.5263381 1.9826935-1.0341466 1.4680305-2.7143218-.7974394-2.6031449-1.8731427-5.1494492-2.0027486-7.90408521-.1095507-2.32920865-.3008259-4.63387822-.7347673-6.92903265-.1436443-.76096163-.3983436-.93023115-1.1120531-.92246879-3.381534.03580702-6.77159136.15875278-10.14284713-.02779425-2.22059664-.12294576-4.30231198 1.58852931-4.26646356 4.23924988.08398057 6.21314282.07370235 12.42903992-.0042617 18.64218272-.01930299 1.5309376.65003467 2.3236999 1.89771016 2.9572086 1.53747112.7807431 3.0202922 1.6696585 4.52642728 2.5119997-.49561069.1920558-.91275596-.1004099-1.30207484-.2884593-1.41312974-.6828372-2.82625948-1.3761912-4.18047748-2.1666999-.7881639-.4599824-.86186625-.2201004-.92203143.5356028-.25896098 3.2609422 1.77863323 4.9170792 4.66681271 4.8810217 7.38803379-.0928979 14.77807309-.0287958 22.16736039-.029547zm-5.1930074-22.7614917c-.7367728-.1186889-1.9744207.7193955-1.8555945 1.2935597.1950355.9407479 1.0057613.3370366 1.532708.4652408.0777134.0190303.1644515.002504.3213824.002504.638503-.2281133 1.9333079.2288644 1.9877072-.4742552.0581597-.7499441-1.1198244-1.1473268-1.9862031-1.2870493zm11.5106023 7.1043118c-.000752 4.0897618-.0536473 8.1805253.019303 12.2690352.0433691 2.4361289-2.2341338 5.1446915-5.0503657 5.1799978-8.2714593.1041658-16.544924.0673572-24.81738606.0187799-2.68988506-.0157752-5.08370729-2.5535659-5.09724446-5.3595337-.03885668-8.054074-.03985943-16.1086487-.00125344-24.16297313.01453992-3.02206183 2.522676-5.42939487 5.56076706-5.42939487 8.0215231-.0007512 16.0427954.03054864 24.0640678.038311 2.7049264.00275438 5.4080979 2.50473813 5.3456765 5.30194194-.0902478 4.04594209-.0230633 8.09564016-.0235647 12.14383586zm-25.25315238-6.0717002c.97683808.0850456 1.87927498.1637674 2.91666668.2542648-.8066777-1.2220412-1.5495159-1.2752493-2.91666668-.2542648zm-.88772222 18.789612c-.05625-.042-.11275-.08425-.169-.12625.0285.08225.08475.1245.169.12625z" fill-rule="evenodd" transform="translate(8 8)"/></svg>

<?xml version="1.0" encoding="UTF-8"?>
<svg width="50px" height="50px" viewBox="0 0 50 50" version="1.1" xmlns="http://www.w3.org/2000/svg" xmlns:xlink="http://www.w3.org/1999/xlink">
    <!-- Generator: Sketch 52.5 (67469) - http://www.bohemiancoding.com/sketch -->
    <title>050-muet</title>
    <desc>Created with Sketch.</desc>
    <g id="050-muet" stroke="none" stroke-width="1" fill="none" fill-rule="evenodd">
        <g id="Group-7" transform="translate(8.000000, 8.000000)" fill="#000000">
            <path d="M28.6577797,33.141282 C31.7575401,33.1410316 33.1857111,31.7425549 33.1884687,28.6759221 C33.195488,21.1702213 33.1929811,13.66427 33.1854604,6.15856917 C33.184959,5.66077656 33.1621464,5.15221682 33.0586122,4.66794574 C32.7680645,3.30928243 31.3246014,2.01622358 30.0124991,1.91381051 C29.5081143,1.87424752 29.0571261,1.78510558 29.1819689,2.66150101 C29.4574753,4.59633172 29.5848249,6.55269671 29.7502792,8.50230094 C29.8054306,9.14908077 29.9089648,9.66114609 30.5958507,10.0229722 C31.2085328,10.3452353 31.543703,11.1004378 31.307304,11.7547296 C30.5419527,13.8746049 31.6311932,16.4023797 29.8377694,18.2928899 C29.670811,18.4689201 29.6760754,18.8515293 29.6783316,19.1377351 C29.6916181,20.8762532 29.2682056,22.5323901 28.6184216,24.1136579 C26.784637,28.5755122 23.8460692,31.4596044 18.8671496,30.9485406 C17.6803913,30.8265965 16.5189526,30.4617656 15.3459822,30.2061085 C15.5427725,30.620268 15.1637319,30.6170128 14.9446303,30.7051531 C13.2319281,31.3932487 11.4826254,31.147858 9.73984058,30.8699154 C9.58366179,30.845126 9.46283005,30.5972313 9.32570357,30.453252 C11.3407358,30.6761069 13.3600298,30.9923604 15.3294368,30.1883302 C15.8257996,29.3935648 16.3509915,28.581021 15.9180528,27.6029637 C15.5525493,26.7779 15.6049432,26.1186002 16.3552532,25.5471904 C16.6382802,25.3318475 16.7373021,25.0175972 16.4785918,24.6883229 C16.6500626,24.0437967 17.0704668,24.4526977 17.3652762,24.5072846 C19.5292173,24.9076722 21.6004037,24.5901666 23.5896151,23.7072608 C23.9719147,23.5374905 24.6603046,23.3629626 24.4577485,22.8348718 C24.2566965,22.3107873 23.6936507,22.6227841 23.2589573,22.7832896 C20.8889504,23.6581827 18.4730676,23.9303661 16.0306119,23.134599 C15.3803265,22.9227617 15.1236217,23.2635543 14.8263054,23.6719546 C14.1115932,23.1618925 13.1100936,23.0559738 12.5470478,22.185588 C14.094045,22.365875 15.3850896,23.1255847 16.8889685,23.0264268 C17.8513607,22.9630759 18.2730184,22.5644412 17.8972367,21.6990633 C17.526218,20.8447029 17.9290741,20.5637556 18.5991638,20.3564255 C20.3023399,19.8300874 20.5818573,19.3222789 20.0671943,17.6421037 C19.2697549,15.0389588 18.1940516,12.4926545 18.0644457,9.73801849 C17.954895,7.40880984 17.7636198,5.10414027 17.3296784,2.80898584 C17.1860341,2.04802421 16.9313348,1.87875469 16.2176253,1.88651705 C12.8360913,1.92232407 9.44603394,2.04526983 6.07477817,1.8587228 C3.85418153,1.73577704 1.77246619,3.44725211 1.80831461,6.09797268 C1.89229518,12.3111155 1.88201696,18.5270126 1.80405291,24.7401554 C1.78474992,26.271093 2.45408758,27.0638553 3.70176307,27.697364 C5.23923419,28.4781071 6.72205527,29.3670225 8.22819035,30.2093637 C7.73257966,30.4014195 7.31543439,30.1089538 6.92611551,29.9209044 C5.51298577,29.2380672 4.09985603,28.5447132 2.74563803,27.7542045 C1.95747413,27.2942221 1.88377178,27.5341041 1.8236066,28.2898073 C1.56464562,31.5507495 3.60223983,33.2068865 6.49041931,33.170829 C13.8784531,33.0779311 21.2684924,33.1420332 28.6577797,33.141282 Z M23.4647723,10.3797903 C22.7279995,10.2611014 21.4903516,11.0991858 21.6091778,11.67335 C21.8042133,12.6140979 22.6149391,12.0103866 23.1418858,12.1385908 C23.2195992,12.1576211 23.3063373,12.1410948 23.4632682,12.1410948 C24.1017712,11.9129815 25.3965761,12.3699592 25.4509754,11.6668396 C25.5091351,10.9168955 24.331151,10.5195128 23.4647723,10.3797903 Z M34.9753746,17.4841021 C34.9746226,21.5738639 34.9217273,25.6646274 34.9946776,29.7531373 C35.0380467,32.1892662 32.7605438,34.8978288 29.9443119,34.9331351 C21.6728526,35.0373009 13.3993879,35.0004923 5.12692584,34.951915 C2.43704078,34.9361398 0.0432185495,32.3983491 0.0296813832,29.5923813 C-0.0091752976,21.5383073 -0.0101780507,13.4837326 0.0284279419,5.42940817 C0.0429678612,2.40734634 2.55110394,1.32954707e-05 5.589195,1.32954707e-05 C13.6107181,-0.00073790061 21.6319904,0.0305619361 29.6532628,0.0383242956 C32.3581892,0.0410786812 35.0613607,2.54306243 34.9989393,5.34026624 C34.9086915,9.38620833 34.975876,13.4359064 34.9753746,17.4841021 Z M9.72222222,11.4124019 C10.6990603,11.4974475 11.6014972,11.5761693 12.6388889,11.6666667 C11.8322112,10.4446255 11.089373,10.3914174 9.72222222,11.4124019 Z M8.8345,30.2020139 C8.77825,30.1600139 8.72175,30.1177639 8.6655,30.0757639 C8.694,30.1580139 8.75025,30.2002639 8.8345,30.2020139 Z" id="Combined-Shape"></path>
        </g>
    </g>
</svg>
